www/assets/icons/maps_ugc.svg

<svg xmlns="http://www.w3.org/2000/svg" width="24" height="24" viewBox="0 0 24 24" fill='currentColor'><path fill-rule="evenodd" d="M12.5 1.5c-5.52 0-10 4.48-10 10 0 1.54.36 2.98.97 4.29L1.5 22.5l6.71-1.97c1.31.61 2.75.97 4.29.97 5.52 0 10-4.48 10-10s-4.48-10-10-10m4 11h-3v3h-2v-3h-3v-2h3v-3h2v3h3z" clip-rule="evenodd"/></svg>

<svg width="24" height="24" viewBox="0 0 24 24" xmlns="http://www.w3.org/2000/svg" fill='currentColor'><path fill-rule="evenodd" clip-rule="evenodd" d="M12.5 1.5C6.98 1.5 2.5 5.98 2.5 11.5C2.5 13.04 2.86 14.48 3.47 15.79L1.5 22.5L8.21 20.53C9.52 21.14 10.96 21.5 12.5 21.5C18.02 21.5 22.5 17.02 22.5 11.5C22.5 5.98 18.02 1.5 12.5 1.5ZM16.5 12.5H13.5V15.5H11.5V12.5H8.5V10.5H11.5V7.5H13.5V10.5H16.5V12.5Z"/></svg>
